teeny/solid/bar-chart.svg

<svg viewBox="0 0 15 15" xmlns="http://www.w3.org/2000/svg"><path fill-rule="evenodd" d="M13 0h1v12h-1V0Zm-3 3v9H9V3h1ZM6 6v6H5V6h1Zm-5 6V9h1v3H1Zm14 3H0v-1h15v1Z"/></svg>

<svg width="15" height="15" viewBox="0 0 15 15" fill="none" xmlns="http://www.w3.org/2000/svg">
<path fill-rule="evenodd" clip-rule="evenodd" d="M13 0H14V12H13V0ZM10 3V12H9V3H10ZM6 6V12H5V6H6ZM1 12V9H2V12H1ZM15 15H0V14H15V15Z" fill="black"/>
</svg>
